!!!OTL: Der heimkehrende Soldat Husar, der aus dem Kriege kam, hurrah!
!!!ARE: Europa, Mitteleuropa, Deutschland (BRD), Hessen
!!!YOR: 5, S. 160
!!    ????
!!!SCT: Q0103G
!!!YEM: Copyright 1995, estate of Helmut Schaffrath.
**kern
*ICvox
*Ivox
*M6/8
*k[f#]
*G:
{8d
=1
8d
8g
8g
8g
8b
8b
=2
8b
8a
8a
4a
8dd
=3
[4.b
8b]
8r}
{8g
=4
4dd
8dd
8dd
8dd
8ee
=5
8dd
8cc
8cc
4cc}
{8dd
=6
8.b
16b
8b
8dd
8cc
8b
=7
8b
8a
8a
4a}
{8dd
=8
4b
8b
8a
8g
8a
=9
[4.g
8g]
8r}
{8g
=10
4dd
8dd
8dd
8dd
8ee
=11
8dd
8cc
8cc
4cc}
{8dd
=12
4b
8b
8a
8g
8a
=13
[4.g
8g]
8r}
==
!!!AGN: Ballade, Ehe, Betrug
!! Anhaengsel; letzte Zeile = Refrain.
!!!ONB: ESAC (Essen Associative Code) Database: BALLADE
!!!AMT: compound duple
!!!AIN: vox
!!!EED: Helmut Schaffrath
!!!EEV: 1.0
*-
